svgs/duotone/sensor.svg

<svg xmlns="http://www.w3.org/2000/svg" viewBox="0 0 448 512"><!-- Font Awesome Pro 6.0.0-alpha2 by @fontawesome - https://fontawesome.com License - https://fontawesome.com/license (Commercial License) --><defs><style>.fa-secondary{opacity:.4}</style></defs><path d="M384 32H64C28.625 32 0 60.625 0 96V416C0 451.375 28.625 480 64 480H384C419.375 480 448 451.375 448 416V96C448 60.625 419.375 32 384 32ZM96 272C96 280.875 88.875 288 80 288S64 280.875 64 272V112C64 103.125 71.125 96 80 96S96 103.125 96 112V272ZM160 272C160 280.875 152.875 288 144 288S128 280.875 128 272V112C128 103.125 135.125 96 144 96S160 103.125 160 112V272ZM224 272C224 280.875 216.875 288 208 288S192 280.875 192 272V112C192 103.125 199.125 96 208 96S224 103.125 224 112V272Z" class="fa-secondary"/><path d="M80 96C71.125 96 64 103.125 64 112V272C64 280.875 71.125 288 80 288S96 280.875 96 272V112C96 103.125 88.875 96 80 96ZM144 96C135.125 96 128 103.125 128 112V272C128 280.875 135.125 288 144 288S160 280.875 160 272V112C160 103.125 152.875 96 144 96ZM208 96C199.125 96 192 103.125 192 112V272C192 280.875 199.125 288 208 288S224 280.875 224 272V112C224 103.125 216.875 96 208 96Z" class="fa-primary"/></svg>

<svg xmlns="http://www.w3.org/2000/svg" viewBox="0 0 448 512"><!--! Font Awesome Pro 6.0.0-alpha3 by @fontawesome - https://fontawesome.com License - https://fontawesome.com/license (Commercial License) --><defs><style>.fa-secondary{opacity:.4}</style></defs><path class="fa-primary" d="M80 96C71.13 96 64 103.1 64 112v160C64 280.9 71.13 288 80 288S96 280.9 96 272v-160C96 103.1 88.88 96 80 96zM144 96C135.1 96 128 103.1 128 112v160C128 280.9 135.1 288 144 288S160 280.9 160 272v-160C160 103.1 152.9 96 144 96zM208 96C199.1 96 192 103.1 192 112v160C192 280.9 199.1 288 208 288S224 280.9 224 272v-160C224 103.1 216.9 96 208 96z"/><path class="fa-secondary" d="M384 32H64C28.63 32 0 60.63 0 96v320c0 35.38 28.62 64 64 64h320c35.38 0 64-28.62 64-64V96C448 60.63 419.4 32 384 32zM96 272C96 280.9 88.88 288 80 288S64 280.9 64 272v-160C64 103.1 71.13 96 80 96S96 103.1 96 112V272zM160 272C160 280.9 152.9 288 144 288S128 280.9 128 272v-160C128 103.1 135.1 96 144 96S160 103.1 160 112V272zM224 272C224 280.9 216.9 288 208 288S192 280.9 192 272v-160C192 103.1 199.1 96 208 96S224 103.1 224 112V272z"/></svg>
